X:28
T:Galway Bay
Z: id:dc-hornpipe-66
M:C|
L:1/8
K:G Dorian
A|BABc dcd^f|g^fdf gabg|fdbg fdcd|BGA^F G=FDF|!
G2GA BABG|FcFG AGFD|GABG dBGA|B2G2 G3:|!
f|gfdf gabg|gfdf dBGA|BABc dcde|fcdB AGFA|!
BFdB AFcA|BFdB AF_ec|dfga bag^f|d2g2 g3:|!